src/icons/stylus.svg

<svg width="16" height="16" viewBox="0 0 16 16" fill="none" xmlns="http://www.w3.org/2000/svg">
<path fill-rule="evenodd" clip-rule="evenodd" d="M12.7669 2.34501C12.8269 2.39234 12.8676 2.45567 12.8889 2.53501C12.9109 2.61501 12.9142 2.70501 12.8989 2.80501C12.8812 2.91208 12.8443 3.01507 12.7899 3.10901C12.7779 3.12101 12.7622 3.12101 12.7429 3.10901C12.7259 3.09722 12.713 3.08045 12.7059 3.06101C12.7179 2.98501 12.6912 2.92167 12.6259 2.87101C12.5599 2.82101 12.4579 2.79601 12.3199 2.79601C12.0626 2.79601 11.8036 2.89267 11.5429 3.08601C11.2829 3.27867 11.0306 3.53301 10.7859 3.84901C10.5412 4.16501 10.3122 4.52834 10.0989 4.93901C9.67807 5.75181 9.36638 6.61662 9.1719 7.51101C9.08057 7.94101 9.0349 8.33301 9.0349 8.68701C9.0349 8.87701 9.08824 8.97201 9.1949 8.97201C9.27769 8.96833 9.35628 8.93455 9.4159 8.87701C9.4879 8.81367 9.57124 8.71867 9.6659 8.59201C9.68524 8.58001 9.70224 8.58167 9.7169 8.59701C9.73224 8.61301 9.73724 8.63334 9.7319 8.65801C9.60657 8.84801 9.4589 9.00634 9.2889 9.13301C9.1189 9.25967 8.96557 9.32301 8.8289 9.32301C8.7089 9.32301 8.62557 9.28801 8.5789 9.21801C8.52918 9.13884 8.50477 9.0464 8.5089 8.95301C8.5089 8.65501 8.57124 8.28334 8.6959 7.83801C8.8219 7.39201 8.9899 6.92067 9.1999 6.42401C9.4099 5.92867 9.65324 5.43401 9.9299 4.94001C10.2052 4.44667 10.4919 4.00234 10.7899 3.60701C11.0879 3.21167 11.3879 2.89067 11.6899 2.64401C11.9919 2.39734 12.2739 2.27401 12.5359 2.27401C12.6184 2.27058 12.6997 2.29565 12.7659 2.34501H12.7669ZM3.4729 13.86C3.41291 13.8114 3.37014 13.7448 3.3509 13.67C3.32839 13.5817 3.32499 13.4897 3.3409 13.4C3.35861 13.2929 3.39554 13.1899 3.4499 13.096C3.4619 13.084 3.47757 13.084 3.4969 13.096C3.51391 13.1078 3.52683 13.1246 3.5339 13.144C3.5219 13.22 3.54857 13.2833 3.6139 13.334C3.6799 13.384 3.7819 13.409 3.9199 13.409C4.17724 13.409 4.43624 13.3123 4.6969 13.119C4.9569 12.9263 5.20924 12.672 5.4539 12.356C5.69857 12.04 5.92757 11.6767 6.1409 11.266C6.56174 10.4532 6.87343 9.5884 7.0679 8.69401C7.15924 8.26401 7.2049 7.87201 7.2049 7.51801C7.2049 7.32801 7.15157 7.23334 7.0449 7.23401C6.96205 7.23647 6.88315 7.27003 6.8239 7.32801C6.73173 7.41488 6.64802 7.5103 6.5739 7.61301C6.55524 7.62634 6.53824 7.62467 6.5229 7.60801C6.50757 7.59267 6.50257 7.57201 6.5079 7.54601C6.6273 7.36378 6.77715 7.20344 6.9509 7.07201C7.1209 6.94534 7.27424 6.88201 7.4109 6.88201C7.5309 6.88201 7.61424 6.91701 7.6609 6.98701C7.70757 7.05701 7.7309 7.14567 7.7309 7.25301C7.7309 7.54967 7.66857 7.92101 7.5439 8.36701C7.4179 8.81301 7.2499 9.28434 7.0399 9.78101C6.8299 10.2777 6.58657 10.7723 6.3099 11.265C6.03457 11.7583 5.7479 12.2027 5.4499 12.598C5.18886 12.9533 4.88677 13.2766 4.5499 13.561C4.2499 13.8077 3.9679 13.931 3.7039 13.931C3.62136 13.9344 3.53915 13.9094 3.4729 13.86Z" fill="#C3E88D" stroke="#C3E88D" stroke-width="0.5"/>
</svg>

<svg xmlns="http://www.w3.org/2000/svg" width="16" height="16" fill="none"><g fill="#C3E88D" fill-rule="evenodd" stroke="#C3E88D" stroke-width=".5" clip-rule="evenodd"><path d="M12.767 2.345q.09.071.122.19.033.12.01.27a.9.9 0 0 1-.109.304q-.018.018-.047 0a.1.1 0 0 1-.037-.048q.018-.114-.08-.19-.099-.075-.306-.075-.386 0-.777.29-.39.289-.757.763t-.687 1.09a10.4 10.4 0 0 0-.927 2.572q-.137.645-.137 1.176 0 .285.16.285a.34.34 0 0 0 .221-.095q.108-.095.25-.285.029-.018.051.005.023.024.015.061-.188.285-.443.475t-.46.19q-.18 0-.25-.105a.46.46 0 0 1-.07-.265q0-.447.187-1.115.189-.669.504-1.414.315-.743.73-1.484.413-.74.86-1.333t.9-.963.846-.37a.36.36 0 0 1 .23.071ZM3.473 13.86a.36.36 0 0 1-.122-.19.64.64 0 0 1-.01-.27.9.9 0 0 1 .109-.304q.018-.018.047 0a.1.1 0 0 1 .037.048q-.018.114.08.19.099.075.306.075.386 0 .777-.29.39-.289.757-.763t.687-1.09a10.4 10.4 0 0 0 .927-2.572q.137-.645.137-1.176 0-.285-.16-.284a.33.33 0 0 0-.221.094 2 2 0 0 0-.25.285q-.028.02-.051-.005-.023-.023-.015-.062a1.9 1.9 0 0 1 .443-.474q.255-.19.46-.19.18 0 .25.105t.07.266q0 .445-.187 1.114-.189.669-.504 1.414t-.73 1.484q-.413.74-.86 1.333a5.6 5.6 0 0 1-.9.963q-.45.37-.846.37a.36.36 0 0 1-.23-.071Z"/></g></svg>
